apps/mobile/assets/icons/phosphor/arrow-fat-up.svg

<svg
  height="32"
  viewBox="0 0 256 256"
  width="32"
  xmlns="http://www.w3.org/2000/svg"
>
  <path
    d="m229.66 114.34-96-96a8 8 0 0 0 -11.32 0l-96 96a8 8 0 0 0 5.66 13.66h40v80a16 16 0 0 0 16 16h80a16 16 0 0 0 16-16v-80h40a8 8 0 0 0 5.66-13.66zm-53.66-2.34a8 8 0 0 0 -8 8v88h-80v-88a8 8 0 0 0 -8-8h-28.69l76.69-76.69 76.69 76.69z"
  />
</svg>

<svg xmlns="http://www.w3.org/2000/svg" width="32" height="32" fill="#000000" viewBox="0 0 256 256"><path d="M229.66,114.34l-96-96a8,8,0,0,0-11.32,0l-96,96A8,8,0,0,0,32,128H72v80a16,16,0,0,0,16,16h80a16,16,0,0,0,16-16V128h40a8,8,0,0,0,5.66-13.66ZM176,112a8,8,0,0,0-8,8v88H88V120a8,8,0,0,0-8-8H51.31L128,35.31,204.69,112Z"></path></svg>
